X:1
%
T:Kathleen O’Kane
M:2/4
L:1/8
R:Reel
N:”Kerry Reel”
S:Sean O’Gorman, fiddler, “was taught by Lynch, a County Clare man,
S:a teacher of dancing and fiddling in Co. Galway.”
B:Carol G. Hardebeck – A Collection of Jigs and Reels vol. 2 (Dublin, 1921, p. 24)
Z:AK/Fiddler’s Companion
K:Ador
(E<A) (A<G)|E2 D<G|G2 B<G|d<G B<G|\
L:1/16
(EA3) (B/A/G3)|(EG3) (ef3)|
ge3 (e/d/B3)|1 (BA3) ~(AG3):|2 ~B2A2 A4||:(ag3) (eg3)|a2 (ba3)|
L:1/8
(g<e) (d<e)|g2 (g<a)|(a<g) e<g|a2 (g<a)|(b<a) (g<a)|
(b<g) g2|(a<g) (e<a)|(g<e) (d<e)|g2 (g<d)|(B<G) (A/G/F/G/)|
L:1/16
ea3 (b/a/g3)|ea3 a4|ge3 dB3|1 ~B2A2 GA3:|2 ~B2A2A4||

